img/heart-empty.svg

<?xml version="1.0" encoding="UTF-8"?>
<svg width="16px" height="15px" viewBox="0 0 16 15" version="1.1" xmlns="http://www.w3.org/2000/svg" xmlns:xlink="http://www.w3.org/1999/xlink">
    <!-- Generator: Sketch 41.1 (35376) - http://www.bohemiancoding.com/sketch -->
    <title>heart-empty</title>
    <desc>Created with Sketch.</desc>
    <defs></defs>
    <g id="Page-3" stroke="none" stroke-width="1" fill="none" fill-rule="evenodd">
        <path d="M14.8571606,4.60713285 C14.8571606,6.24106337 13.2053729,7.75892232 13.1785871,7.78570807 L8.00000954,12.7767854 L2.81250335,7.77677949 C2.79464619,7.75892232 1.14285851,6.24106337 1.14285851,4.60713285 C1.14285851,2.09820129 2.8392891,1.57141495 4.26786223,1.57141495 C5.59822096,1.57141495 7.09822275,3.00891666 7.56250902,3.56248875 C7.77679498,3.82141763 8.22322409,3.82141763 8.43751006,3.56248875 C8.90179633,3.00891666 10.4017981,1.57141495 11.7321568,1.57141495 C13.16073,1.57141495 14.8571606,2.09820129 14.8571606,4.60713285 Z M16.0000191,4.60713285 C16.0000191,1.9910583 14.4018029,0.428556442 11.7321568,0.428556442 C10.169655,0.428556442 8.70536752,1.66070077 8.00000954,2.35713017 C7.29465155,1.66070077 5.83036409,0.428556442 4.26786223,0.428556442 C1.59821619,0.428556442 0,1.9910583 0,4.60713285 C0,6.74999255 1.96428806,8.54463755 2.03571671,8.60713762 L7.60715193,13.982144 C7.71429491,14.089287 7.85715222,14.1428585 8.00000954,14.1428585 C8.14286685,14.1428585 8.28572416,14.089287 8.39286715,13.982144 L13.9553738,8.62499478 C14.035731,8.54463755 16.0000191,6.74999255 16.0000191,4.60713285 Z" id="heart-empty" fill="#000000"></path>
    </g>
</svg>

<svg width="16" height="15" viewBox="0 0 16 15" xmlns="http://www.w3.org/2000/svg">
  <title>
    heart-empty
  </title>
  <path d="M14.857 4.607c0 1.634-1.652 3.152-1.678 3.179L8 12.776l-5.187-5c-.018-.017-1.67-1.535-1.67-3.169 0-2.509 1.696-3.036 3.125-3.036 1.33 0 2.83 1.438 3.295 1.991.214.26.66.26.875 0 .464-.553 1.964-1.99 3.294-1.99 1.429 0 3.125.526 3.125 3.035zm1.143 0C16 1.991 14.402.43 11.732.43 10.17.429 8.705 1.66 8 2.357 7.295 1.661 5.83.43 4.268.43 1.598.429 0 1.99 0 4.607c0 2.143 1.964 3.938 2.036 4l5.571 5.375c.107.107.25.16.393.16.143 0 .286-.053.393-.16l5.562-5.357C14.035 8.545 16 6.75 16 4.607z" fill="#000" fill-rule="evenodd"/>
</svg>
